X:24
T:Tumblers Hornpipe. JBu.24
T:Washington Hornpipe,aka. JBu.24
O:England,South Yorkshire
S:Joshua Burnett’s MS,c1835,S.Yorkshire
M:C|
L:1/8
Q:1/2=90
R:.hornpipe
Z:vmp.R.Greig.2010
K:Bb
Bcde fBAB|gBaB bBAB|GBFB EBDB|cedc BAGF|
Bcde fBAB|gBaB bBAB|GBFB EBDB|ecBA B2B2:|
|:fBAB gBAB|gBaB bBAB|gabg gfed|edcB BAGF|
Bcde fBAB|”bar missing in MS”gBaB bBAB|GBFB EBDB|ecBA B2B2:|

